!!!COM: Morley, Thomas
!!!OTL: Domine Fac Mecum
!!!YOR: from 'Collected Motets' edited by H.K. Andrews & Thurston Dart, pp.5-10
!!!YOO: Stainer & Bell (London)
!!!YOY: 1959
**kern	**kern	**kern	**kern
*ICvox	*ICvox	*ICvox	*ICvox
! Basis	! Tenor	! Altus	! Cantus
*M3/2	*M3/2	*M3/2	*M3/2
=1	=1	=1	=1
2r	1.r	[1.e	2r
1E	.	.	2r
.	.	.	[2ee
=2	=2	=2	=2
2C#	2r	1.e]	2ee]
2AA	1A	.	2cc#
4r	.	.	2a
4AA	.	.	.
=3	=3	=3	=3
{4.D	2F#	1f#	4r
.	.	.	4a
8E	.	.	.
4F#	2D	.	2dd
4D	.	.	.
2A}	4r	4e	4cc#
.	4A	4e	4cc#
=4	=4	=4	=4
4E	{2.e	2gn	[1.b
4E	.	.	.
1B	.	4f#	.
.	8d#	4f#	.
.	8c#	.	.
.	2d}	2f#	.
=5	=5	=5	=5
1E	4e	2g#	2b]
.	2B	.	.
.	.	4r	2b
.	4B	2b	.
4r	4G#	.	2r
[4E	4G#	4b	.
=6	=6	=6	=6
4E]	2B	4g#	4r
4E	.	4g#	2ee
2C#	4E	1a	.
.	2e	.	4ee
4r	.	.	2cc#
4AA	4e	.	.
=7	=7	=7	=7
{4.A	2c#	4e	4r
.	.	4e	4a
8Gn	.	.	.
8F#	2A	{4.f#	{4.dd
8E	.	.	.
4.D	.	.	.
.	.	8gn	8ee
.	[{2d	4a	2ff#}
8E	.	.	.
8F#	.	[4A	.
8G#	.	.	.
=8	=8	=8	=8
2A	4d]	8A]	4ee
.	.	8B	.
.	4c#	8c#	4e
.	.	8d	.
1E}	4B	4e	{4g#
.	2A	4c#	4a
.	.	2e}	2b}
.	4G#}	.	.
=9	=9	=9	=9
1AA	4A	4e	1cc#
.	4A	4e	.
.	4A	4e	.
.	4A	4e	.
2r	[2d	[2f#	4r
.	.	.	4a
=10	=10	=10	=10
1.r	4d]	4f#]	4a
.	4c#	4e	4a
.	4.B	4d	2.dd
.	.	{4f#	.
.	{8A	.	.
.	4G#	4b	.
.	4A}	4a}	4cc#
=11	=11	=11	=11
4r	4E	2g#	4b
4E	4B	.	{8e
.	.	.	8f#
4E	4B	4r	8g#
.	.	.	4a
4E	4B	4e	.
.	.	.	8g#}
[2A	[2c#	4e	2a
.	.	4e	.
=12	=12	=12	=12
4A]	4c#]	2.a	2r
4Gn	4B	.	.
4.F#	4A	.	2a
.	{8B	4gn	.
{8E	8c#	.	.
4D	4d	4f#	4a
4C#	4A}	{4e	4a
=13	=13	=13	=13
4.BB	4B	4d	2.dd
.	{2B	4f#	.
8AA	.	.	.
4GG#	.	2.e	.
4AA	4A	.	4cc#
4E	4G#	.	4b
4F#	4A	8c#	{4a
.	.	8d	.
=14	=14	=14	=14
4E	4B	4e	4g#
4C#	4c#	4A	4.a
1BB}	4d#	1B}	.
.	.	.	8gn
.	2e	.	8g
.	.	.	16f#
.	.	.	16e
.	.	.	2f#}
.	4d#}	.	.
=15	=15	=15	=15
1E	4e	2B	2g#
.	4B	.	.
.	4B	2r	4r
.	4B	.	4b
4r	[2e	2r	4b
4E	.	.	4b
=16	=16	=16	=16
4E	4e]	2e	2.ee
4E	4d	.	.
2.A	4c#	4e	.
.	{4B	4e	4dd
.	4A	[2a	4cc#
4Gn	8B	.	{4b
.	8c#	.	.
=17	=17	=17	=17
4F#	4d	4a]	4a
{4E	4Gn	4gn	8b
.	.	.	8cc#
4D	4A	4f#	2.dd
4BB	4B	{2f#	.
4F#	2A}	.	.
4A}	.	[4e	[4cc#
=18	=18	=18	=18
4E	4G#	8e]	4cc#]
.	.	8f#	.
{4E	{4.e	4gn	4.b
4C#	.	1e}	.
.	8d	.	8a
4AA	4c#	.	2a
2E}	2B}	.	.
.	.	.	4g#}
=19	=19	=19	=19
1.AA	4A	2c#	1a
.	2A	.	.
.	.	4r	.
.	4A	2e	.
.	4c#	.	4r
.	4A	4e	[4a
=20	=20	=20	=20
1.r	{8d	4f#	4a]
.	8e	.	.
.	[4f#	4d	4a
.	8f#]	{8a	4cc#
.	8e	8gn	.
.	8d	8f#	4a
.	8c#	8e	.
.	8B	8d	[{2dd
.	8c#	8e	.
.	[4d	[4f#	.
=21	=21	=21	=21
4r	4d}]	8f#]	4dd]
.	.	8e	.
2D	2d	8f#	8cc#
.	.	8gn}	8b
.	.	4a	4a
4D	2A	{4.a	2.dd
4F#	.	.	.
.	.	8g	.
4D	4A	4f#	.
=22	=22	=22	=22
2A	4c#	4e	2cc#}
.	4A	4a}	.
4E	2.e	4g#	2b
2E	.	{8e	.
.	.	8f#	.
.	.	[2gn	4r
4E	4e	.	[4b
=23	=23	=23	=23
4Gn	4d	2g]	4b]
4E	4e	.	4b
{2B	{2d	4.f#}	4dd
.	.	.	4b
.	.	8gn	.
4.A	4.c#	4a	{4ff#
.	.	[4a	[4ee
8G	8B	.	.
=24	=24	=24	=24
8F#	2A	4a]	4ee]
8E	.	.	.
4F#	.	4f#	4dd#
4E	4B	4g#	2ee
2A	4c#}	4a	.
.	2B	2b	2ddn}
4G#}	.	.	.
=25	=25	=25	=25
4A	4r	4e	2cc#
4A	4e	4a	.
4A	4c#	4e	2r
4F#	4d	4f#	.
4Gn	4d	4e	2r
4A	4c#	4e	.
=26	=26	=26	=26
2D	4d	4f#	4r
.	4d	4f#	4a
2r	4d	4f#	4a
.	4c#	4e	4a
2r	4d	4f#	4b
.	4e	4g#	4b
=27	=27	=27	=27
4r	4A	2a	2cc#
4A	4c#	.	.
4A	4c#	4r	2r
4A	4c#	4e	.
[2Gn	[2B	4e	2r
.	.	4e	.
=28	=28	=28	=28
4G]	4B]	2.d	2r
4F#	4A	.	.
4E	4G#	.	2r
{4.E	{4A	4c#	.
.	4G#	4B	4r
8D	.	.	.
8C#	4E	{8A	4ee
8BB	.	8B	.
=29	=29	=29	=29
8AA	2A	8c#	4ee
8BB	.	8d	.
4C#	.	8e	4ee
.	.	8f#	.
2BB}	2B}	8g#	4.dd
.	.	4a	.
.	.	8g#}	8ee
[2AA	4c#	4a	4ff#
.	{4c#	4a	[4ee
=30	=30	=30	=30
2AA]	8A	4a	8ee]
.	8B	.	{8dd
.	8c#	4a	4cc#
.	8d	.	.
4r	4e	4.gn	4.b
4E	2B	.	.
.	.	8f#	8a
4E	.	4e	8gn
.	.	.	8a
4E	4e}	{4g	8b
.	.	.	8cc#}
=31	=31	=31	=31
4.D	4A	2f#	4dd
.	4d	.	4ff#
8C#	.	.	.
4BB	4d	4b	4ff#
4D	4d	2a	4ff#
4AA	4.c#	.	4.ee
4A	.	[4e	.
.	8B	.	8dd
=32	=32	=32	=32
4A	4A	8e]	4cc#
.	.	8d	.
4A	{4c#	8e	{4a
.	.	8f#}	.
4.Gn	4B	4gn	1b}
.	8E	4g	.
8F#	8F#	.	.
4E	8Gn	4g	.
.	8A	.	.
4G	8B	4g	.
.	8c#}	.	.
=33	=33	=33	=33
*M4/2	*M4/2	*M4/2	*M4/2
4D	4d	4f#	4a
{8BB	4f#	4d	4dd
8C#	.	.	.
8D	4f#	4a	4dd
8E	.	.	.
8F#	4f#	[{4A	4dd
8Gn	.	.	.
4A	4.e	8A]	4.cc#
.	.	8B	.
4.AA	.	8c#	.
.	8d	8d	8b
.	2c#	4e	4a
8BB	.	.	.
8C#	.	4a	[{4ee
8D	.	.	.
=34	=34	=34	=34
*M3/2	*M3/2	*M3/2	*M3/2
1.E}	4B	4g#	8ee]
.	.	.	8dd
.	{4.e	4a	4cc#
.	.	4g#	4b
.	8d	.	.
.	4c#	4.e	2a
.	2B}	.	.
.	.	8d	.
.	.	4B}	4g#}
=35	=35	=35	=35
1.AA;	1.A;	1.c#;	1.a;
==	==	==	==
*-	*-	*-	*-
!!!ENC: Mark Laxton
!!!EDD: Mark Laxton
!!!YEC: Mark Laxton, 1987
!!!EMD: Reference records added by D. Huron, 2001
!!!EEV: 1.1
